X:1
T:The Strathnairn
R:polka
M:2/4
L:1/8
K:Bm
|B>A Fd|Bc BA|FE/F/ AF|E2- EF/A/|
|B>c BA|Fd cd|FA FD|B,2- B,B|
|B/c/B/A/ Fd|Bc BA|FE/F/ AF|E2- EF/A/|
|B>c BA|Fd cd|FA FD|B,2- B,e|
|ef/e/ dB|Ad fd|gf/e/ de/f/|e2- ee|
|ef/e/ dB|Ad cd|FA FD|B,2- B,e|
|ef/e/ dB|Ad fa|b2- bc'|ba f/e/d|
|ef/e/ dB|Ad cd|FA FD|B,2- B,B|